apps/trade/public/tokens/apt.svg

<svg width="25" height="25" viewBox="0 0 25 25" fill="none" xmlns="http://www.w3.org/2000/svg">
<g clip-path="url(#apt_clip0_10065_64217)">
<rect x="0.650391" y="0.552368" width="24" height="24.0951" rx="12" fill="white"/>
<path d="M19.2375 8.61412H17.1144C16.869 8.61412 16.6337 8.50897 16.4685 8.3237L15.6072 7.35228C15.477 7.20707 15.2968 7.12195 15.1015 7.12195C14.9062 7.12195 14.7259 7.20707 14.5957 7.35228L13.8546 8.1885C13.6143 8.4589 13.2638 8.61913 12.9033 8.61913H1.28131C0.950829 9.55549 0.735515 10.5519 0.650391 11.5885H11.6214C11.8167 11.5885 11.9969 11.5083 12.1321 11.3681L13.1536 10.3016C13.2788 10.1664 13.4591 10.0913 13.6393 10.0913H13.6794C13.8747 10.0913 14.0549 10.1764 14.1851 10.3216L15.0464 11.293C15.2116 11.4783 15.447 11.5834 15.6923 11.5834H24.6454C24.5603 10.5519 24.3449 9.55049 24.0145 8.60911L19.2375 8.61412Z" fill="black"/>
<path d="M7.29085 17.8375C7.48613 17.8375 7.6664 17.7574 7.80159 17.6172L8.82308 16.5506C8.95327 16.4154 9.12853 16.3403 9.3138 16.3403H9.35386C9.54914 16.3403 9.73441 16.4254 9.85959 16.5656L10.7209 17.5371C10.8861 17.7223 11.1214 17.8275 11.3668 17.8275H23.5045C23.9602 16.8861 24.2906 15.8796 24.4909 14.8231H12.8389C12.5936 14.8231 12.3582 14.7179 12.193 14.5327L11.3317 13.5713C11.2016 13.4261 11.0213 13.3459 10.826 13.3459C10.6307 13.3459 10.4454 13.4311 10.3203 13.5713L9.57919 14.4075C9.33883 14.6829 8.98832 14.8381 8.62279 14.8381H0.816406C1.0167 15.8947 1.34718 16.9011 1.80284 17.8425L7.29085 17.8375Z" fill="black"/>
<path d="M15.8983 5.36438C16.0936 5.36438 16.2739 5.28426 16.4091 5.14406L17.4305 4.0775C17.5557 3.94231 17.736 3.8672 17.9213 3.8672H17.9613C18.1566 3.8672 18.3369 3.95232 18.4671 4.09753L19.3283 5.07395C19.4936 5.25922 19.7289 5.36438 19.9743 5.36438H22.2826C20.0844 2.44012 16.5893 0.552368 12.6536 0.552368C8.71784 0.552368 5.21774 2.44012 3.01953 5.36438H15.8983Z" fill="black"/>
<path d="M11.2665 20.8169H8.11192C7.86657 20.8169 7.63122 20.7117 7.46598 20.5265L6.60473 19.555C6.47454 19.4098 6.29427 19.3297 6.09899 19.3297C5.9037 19.3297 5.71843 19.4148 5.59325 19.555L4.85217 20.3913C4.61182 20.6667 4.26131 20.8219 3.89578 20.8219H3.8457C6.04391 23.1753 9.17347 24.6525 12.6535 24.6525C16.1336 24.6525 19.2582 23.1753 21.4614 20.8219L11.2665 20.8169Z" fill="black"/>
</g>
<defs>
<clipPath id="apt_clip0_10065_64217">
<rect x="0.650391" y="0.552368" width="24" height="24.0951" rx="12" fill="white"/>
</clipPath>
</defs>
</svg>

<svg width="25" height="25" fill="none" xmlns="http://www.w3.org/2000/svg">
    <g clip-path="url(#a)">
        <rect x=".65" y=".552" width="24" height="24.095" rx="12" fill="#fff"/>
        <path d="M19.238 8.614h-2.124a.866.866 0 0 1-.646-.29l-.86-.972a.677.677 0 0 0-.507-.23.677.677 0 0 0-.505.23l-.741.836c-.24.27-.591.431-.952.431H1.281c-.33.936-.545 1.933-.63 2.97h10.97c.196 0 .376-.08.511-.22l1.022-1.067a.667.667 0 0 1 .485-.21h.04c.196 0 .376.084.506.23l.861.971c.166.185.401.29.646.29h8.953a11.96 11.96 0 0 0-.63-2.974l-4.777.005ZM7.29 17.837c.196 0 .376-.08.512-.22l1.021-1.066a.678.678 0 0 1 .49-.21h.04c.196 0 .381.084.507.225l.86.971c.166.185.401.29.647.29h12.137c.456-.94.787-1.947.987-3.004H12.839a.866.866 0 0 1-.646-.29l-.861-.962a.682.682 0 0 0-1.011 0l-.742.837c-.24.275-.59.43-.956.43H.816c.2 1.057.531 2.063.987 3.005l5.488-.006ZM15.898 5.364c.196 0 .376-.08.511-.22l1.021-1.067a.67.67 0 0 1 .491-.21h.04c.196 0 .376.085.506.23l.861.977c.166.185.4.29.646.29h2.309a12.018 12.018 0 0 0-9.63-4.812A12.028 12.028 0 0 0 3.02 5.364h12.878ZM11.267 20.817H8.112a.866.866 0 0 1-.646-.29l-.861-.972a.682.682 0 0 0-1.011 0l-.742.836c-.24.276-.59.43-.956.43h-.05a12.017 12.017 0 0 0 8.808 3.831c3.48 0 6.604-1.477 8.807-3.83l-10.194-.005Z" fill="#000"/>
    </g>
    <defs>
        <clipPath id="a">
            <rect x=".65" y=".552" width="24" height="24.095" rx="12" fill="#fff"/>
        </clipPath>
    </defs>
</svg>
